X:41
T:Behind the Haystack
C:Traditional
M:6/8
R:jig
K:D
d2e fdB | d2e fdB | AFE (E/F/E)E | AFE (E/F/E)E |
d2e fdB | d2e fdB | AED (D/E/D)D | AED (D/E/D)D :|
|: B2B BAF | ABc dcB | AFE (E/F/E)E | AFE (E/F/E)D |
B2B BAF | ABc dcB | AED (D/E/D)D | AED (D/E/D)D :|
g3 f3 | ede fdB | AFE (E/F/E)E | AFE (E/F/E)D |
g3 f3 | ede fdB | AED (D/E/D)D | AED (D/E/D)D :|

